X: 22
T:Miss 
R:Reel
O:Scotland
M:4/4
L:1/8
Q:1/4=200
K:A
F|:E2EF EFAc|BABc BAFA|E2EF EFAc|BABc A/A/A A:|
c|d2fd c2ec|BABc BAFc|d2fd c2ec|BABc A/A/A Ac|
dfdf cece|BABc BAFf|efge a2gf|ecBc A/A/A A|]
